X:63
T: Si bao zhu zhu
N: C0081
O: China,Shanxi, Qinyuan
S: I, 313]
N: Variante in I, 167
R: Xiaodiao. Qiongfu duibi]
M: 2/4
L: 1/8
K: G
Ad2d | dB2A | dB2A | G4 |
GA2B | AA2G | AF2E | D4 |
B,D2E | GG2E | B,D2E | G4 |
GA2d | AG2E | B,D2E | G3A | ED2B, | A,4

@@@ Tune index: 6064
